assets/icons/star-border.svg

<svg width="20" height="19" viewBox="0 0 20 19" fill="none" xmlns="http://www.w3.org/2000/svg">
<path d="M10 13.4219L13.75 15.6719L12.7656 11.4062L16.0938 8.5L11.6875 8.125L10 4.09375L8.3125 8.125L3.90625 8.5L7.23438 11.4062L6.25 15.6719L10 13.4219ZM19.9844 7.23438L14.5469 11.9688L16.1875 19L10 15.25L3.8125 19L5.45312 11.9688L0.015625 7.23438L7.1875 6.625L10 0.015625L12.8125 6.625L19.9844 7.23438Z" fill="url(#paint0_linear)"/>
<defs>
<linearGradient id="paint0_linear" x1="10" y1="-2" x2="10" y2="22" gradientUnits="userSpaceOnUse">
<stop stop-color="#BC9CFF"/>
<stop offset="1" stop-color="#8BA4F9"/>
</linearGradient>
</defs>
</svg>

<svg width="20" height="19" fill="none" xmlns="http://www.w3.org/2000/svg"><path d="m10 13.422 3.75 2.25-.984-4.266L16.094 8.5l-4.407-.375L10 4.094 8.312 8.125 3.907 8.5l3.328 2.906-.984 4.266 3.75-2.25Zm9.984-6.188-5.437 4.735L16.187 19 10 15.25 3.812 19l1.641-7.031L.016 7.234l7.171-.609L10 .015l2.813 6.61 7.171.61Z" fill="url(#a)"/><defs><linearGradient id="a" x1="10" y1="-2" x2="10" y2="22" gradientUnits="userSpaceOnUse"><stop stop-color="#BC9CFF"/><stop offset="1" stop-color="#8BA4F9"/></linearGradient></defs></svg>
